web/app/themes/mjh/resources/assets/images/tickets.svg

<svg height="50" viewBox="0 0 100 50" width="100" xmlns="http://www.w3.org/2000/svg" xmlns:xlink="http://www.w3.org/1999/xlink"><mask id="a" fill="#fff"><path d="m99.4652569 33.5870652v14.7825h-99.4652569v-48.3695652h99.4652569v33.5870652l.0002284-33.5869565h-83.3635333v33.5869565z" fill="#fff" fill-rule="evenodd"/></mask><g fill="#fff" fill-rule="evenodd"><path d="m93.5265758 9.89152174c-2.8549155 0-5.1388479-2.17391304-5.1388479-4.89130435 0-.65217391-.4556445-1.08695652-1.1419662-1.08695652h-74.6834482c-.6863217 0-1.1419662.43478261-1.1419662 1.08695652s.4556445 1.08695652 1.1419662 1.08695652h73.7698752c.4579284 3.04347826 2.9702541 5.43478259 6.1677595 5.86956519v24.4565218c0 .6521739.4556445 1.0869565 1.1419662 1.0869565.6840378 0 1.1419662-.4347826 1.1419662-1.0869565v-25.4347826c-.1153386-.652174-.5709831-1.08695656-1.2573048-1.08695656"/><path d="m98.2093225 5.97836957c-2.8549156 0-5.138848-2.17391305-5.138848-4.89130435 0-.65217392-.4567865-1.08695652-1.1419662-1.08695652h-74.6845901c-.6851798 0-1.1419662.4347826-1.1419662 1.08695652 0 .65217391.4567864 1.08695652 1.1419662 1.08695652h73.7710171c.4567865 3.04347826 2.9691122 5.43478261 6.1666176 5.86956522v24.45652174c0 .6521739.4567865 1.0869565 1.1419662 1.0869565s1.1419662-.4347826 1.1419662-1.0869565v-25.43478261c-.1141966-.54347826-.5709831-1.08695652-1.2561628-1.08695652" mask="url(#a)"/><path d="m87.3606435 40.3263043c-3.1975054.4336957-5.7098311 2.826087-6.1666176 5.8684783h-23.9812904v-.1076087-1.0869565c0-.4358696-.3425898-.8695652-.9135729-.8695652-.5709832 0-.913573.3260869-.913573.8695652v1.0869565.1076087h-46.93481125c-.45678649-3.0423913-2.96911215-5.4347826-6.16661754-5.8684783v-23.4782608c3.19750539-.4347826 5.70983105-2.826087 6.16661754-5.8695652h46.93481125v.2173913 1.0869565c0 .4347826.3425898.8695652.913573.8695652.5709831 0 .9135729-.326087.9135729-.8695652v-1.0869565-.2173913h23.9812904c.4567865 3.0434782 2.9691122 5.4347826 6.1666176 5.8695652zm1.1419662-25.5434782c-2.8549155 0-5.138848-2.1739131-5.138848-4.89130436 0-.65217391-.4567865-1.08695652-1.1419662-1.08695652h-74.79878674c-.68517973 0-1.14196621.43478261-1.14196621 1.08695652 0 2.71739126-2.28393242 4.89130436-5.13884795 4.89130436-.68517972 0-1.14196621.4347826-1.14196621 1.0869565v25.4336957c0 .6532608.45678649 1.0869565 1.14196621 1.0869565 2.85491553 0 5.13884795 2.173913 5.13884795 4.8913043 0 .6532609.45678648 1.0869566 1.14196621 1.0869566h74.79878674c.6851797 0 1.1419662-.4336957 1.1419662-1.0869566 0-2.7173913 2.2839325-4.8913043 5.138848-4.8913043.6851797 0 1.1419662-.4336957 1.1419662-1.0869565v-25.4336957c0-.6521739-.5709831-1.0869565-1.1419662-1.0869565z"/><path d="m56.2989342 32.9346739c-.4567865 0-.913573.326087-.913573.8695652v1.0869566c0 .4347826.3425899.8695652.913573.8695652s.9135729-.326087.9135729-.8695652v-1.0869566c-.1141966-.5434782-.4567865-.8695652-.9135729-.8695652"/><path d="m56.2989342 27.2828261c-.4567865 0-.913573.3260869-.913573.8695652v1.0869565c0 .4347826.3425899.8695652.913573.8695652s.9135729-.3260869.9135729-.8695652v-1.0869565c-.1141966-.5434783-.4567865-.8695652-.9135729-.8695652"/><path d="m56.2989342 38.5865217c-.4567865 0-.913573.327174-.913573.8706522v1.0869565c0 .4336957.3425899.8695653.913573.8695653s.9135729-.326087.9135729-.8695653v-1.0869565c-.1141966-.5434782-.4567865-.8706522-.9135729-.8706522"/><path d="m56.2989342 21.6304348c-.4567865 0-.913573.3260869-.913573.8695652v1.0869565c0 .4347826.3425899.8695652.913573.8695652s.9135729-.3260869.9135729-.8695652v-1.0869565c-.1141966-.5434783-.4567865-.8695652-.9135729-.8695652"/><path d="m56.2989342 15.9780435c-.4567865 0-.913573.3260869-.913573.8695652v1.0869565c0 .4347826.3425899.8695652.913573.8695652s.9135729-.3260869.9135729-.8695652v-1.0869565c-.1141966-.5434783-.4567865-.8695652-.9135729-.8695652"/><path d="m46.3635997 21.5216304h-35.9719356c-.3425898 0-.57098309.2173913-.57098309.5434783s.22839329.5434783.57098309.5434783h35.9719356c.3425899 0 .5709831-.2173913.5709831-.5434783s-.2283932-.5434783-.5709831-.5434783"/><path d="m10.3916641 29.4567391h26.1510262c.3425899 0 .5709831-.2173913.5709831-.5434782 0-.326087-.2283932-.5434783-.5709831-.5434783h-26.1510262c-.3425898 0-.57098309.2173913-.57098309.5434783 0 .3260869.22839329.5434782.57098309.5434782"/><path d="m42.1386674 35.3261957h-31.7466607c-.3425899 0-.5709831.2173913-.5709831.5434782 0 .326087.2283932.5434783.5709831.5434783h31.7466607c.3425898 0 .5709831-.2173913.5709831-.5434783 0-.3260869-.2283933-.5434782-.5709831-.5434782"/><path d="m55.3227731 28.4567391h22.9958159c.3012552 0 .502092-.2173913.502092-.5434782 0-.326087-.2008368-.5434783-.502092-.5434783h-22.9958159c-.3012553 0-.5020921.2173913-.5020921.5434783 0 .3260869.2008368.5434782.5020921.5434782" transform="matrix(0 1 -1 0 94.733942 -38.90742)"/><path d="m60.3227731 28.4567391h22.9958159c.3012552 0 .502092-.2173913.502092-.5434782 0-.326087-.2008368-.5434783-.502092-.5434783h-22.9958159c-.3012553 0-.5020921.2173913-.5020921.5434783 0 .3260869.2008368.5434782.5020921.5434782" transform="matrix(0 1 -1 0 99.733942 -43.90742)"/><path d="m65.3227731 28.4567391h22.9958159c.3012552 0 .502092-.2173913.502092-.5434782 0-.326087-.2008368-.5434783-.502092-.5434783h-22.9958159c-.3012553 0-.5020921.2173913-.5020921.5434783 0 .3260869.2008368.5434782.5020921.5434782" transform="matrix(0 1 -1 0 104.733942 -48.90742)"/></g></svg>

<?xml version="1.0" encoding="UTF-8"?>
<svg width="100px" height="50px" viewBox="0 0 100 50" version="1.1" xmlns="http://www.w3.org/2000/svg" xmlns:xlink="http://www.w3.org/1999/xlink">
    <!-- Generator: Sketch 44.1 (41455) - http://www.bohemiancoding.com/sketch -->
    <title>Untitled</title>
    <desc>Created with Sketch.</desc>
    <defs>
        <polygon id="path-1" points="99.4652569 33.5870652 99.4652569 48.3695652 0 48.3695652 0 0 99.4652569 0 99.4652569 33.5870652 99.4654853 0.000108695652 16.101952 0.000108695652 16.101952 33.5870652 99.4652569 33.5870652"></polygon>
    </defs>
    <g id="Page-1" stroke="none" stroke-width="1" fill="none" fill-rule="evenodd">
        <g id="Ticket">
            <path d="M93.5265758,9.89152174 C90.6716603,9.89152174 88.3877279,7.7176087 88.3877279,5.00021739 C88.3877279,4.34804348 87.9320834,3.91326087 87.2457617,3.91326087 L12.5623135,3.91326087 C11.8759918,3.91326087 11.4203473,4.34804348 11.4203473,5.00021739 C11.4203473,5.6523913 11.8759918,6.08717391 12.5623135,6.08717391 L86.3321887,6.08717391 C86.7901171,9.13065217 89.3024428,11.5219565 92.4999482,11.9567391 L92.4999482,36.4132609 C92.4999482,37.0654348 92.9555927,37.5002174 93.6419144,37.5002174 C94.3259522,37.5002174 94.7838806,37.0654348 94.7838806,36.4132609 L94.7838806,10.9784783 C94.668542,10.3263043 94.2128975,9.89152174 93.5265758,9.89152174" id="Fill-1" fill="#FFFFFF"></path>
            <g id="Group-5">
                <mask id="mask-2" fill="white">
                    <use xlink:href="#path-1"></use>
                </mask>
                <g id="Clip-4"></g>
                <path d="M98.2093225,5.97836957 C95.3544069,5.97836957 93.0704745,3.80445652 93.0704745,1.08706522 C93.0704745,0.434891304 92.613688,0.000108695652 91.9285083,0.000108695652 L17.2439182,0.000108695652 C16.5587384,0.000108695652 16.101952,0.434891304 16.101952,1.08706522 C16.101952,1.73923913 16.5587384,2.17402174 17.2439182,2.17402174 L91.0149353,2.17402174 C91.4717218,5.2175 93.9840475,7.60880435 97.1815529,8.04358696 L97.1815529,32.5001087 C97.1815529,33.1522826 97.6383394,33.5870652 98.3235191,33.5870652 C99.0086988,33.5870652 99.4654853,33.1522826 99.4654853,32.5001087 L99.4654853,7.06532609 C99.3512887,6.52184783 98.8945022,5.97836957 98.2093225,5.97836957" id="Fill-3" fill="#FFFFFF" mask="url(#mask-2)"></path>
            </g>
            <path d="M87.3606435,40.3263043 C84.1631381,40.76 81.6508124,43.1523913 81.1940259,46.1947826 L57.2127355,46.1947826 L57.2127355,46.0871739 L57.2127355,45.0002174 C57.2127355,44.5643478 56.8701457,44.1306522 56.2991626,44.1306522 C55.7281794,44.1306522 55.3855896,44.4567391 55.3855896,45.0002174 L55.3855896,46.0871739 L55.3855896,46.1947826 L8.45077835,46.1947826 C7.99399186,43.1523913 5.4816662,40.76 2.28416081,40.3263043 L2.28416081,16.8480435 C5.4816662,16.4132609 7.99399186,14.0219565 8.45077835,10.9784783 L55.3855896,10.9784783 L55.3855896,11.1958696 L55.3855896,12.2828261 C55.3855896,12.7176087 55.7281794,13.1523913 56.2991626,13.1523913 C56.8701457,13.1523913 57.2127355,12.8263043 57.2127355,12.2828261 L57.2127355,11.1958696 L57.2127355,10.9784783 L81.1940259,10.9784783 C81.6508124,14.0219565 84.1631381,16.4132609 87.3606435,16.8480435 L87.3606435,40.3263043 Z M88.5026097,14.7828261 C85.6476942,14.7828261 83.3637617,12.608913 83.3637617,9.89152174 C83.3637617,9.23934783 82.9069752,8.80456522 82.2217955,8.80456522 L7.42300876,8.80456522 C6.73782903,8.80456522 6.28104255,9.23934783 6.28104255,9.89152174 C6.28104255,12.608913 3.99711013,14.7828261 1.1421946,14.7828261 C0.457014877,14.7828261 0.000228393242,15.2176087 0.000228393242,15.8697826 L0.000228393242,41.3034783 C0.000228393242,41.9567391 0.457014877,42.3904348 1.1421946,42.3904348 C3.99711013,42.3904348 6.28104255,44.5643478 6.28104255,47.2817391 C6.28104255,47.935 6.73782903,48.3686957 7.42300876,48.3686957 L82.2217955,48.3686957 C82.9069752,48.3686957 83.3637617,47.935 83.3637617,47.2817391 C83.3637617,44.5643478 85.6476942,42.3904348 88.5026097,42.3904348 C89.1877894,42.3904348 89.6445759,41.9567391 89.6445759,41.3034783 L89.6445759,15.8697826 C89.6445759,15.2176087 89.0735928,14.7828261 88.5026097,14.7828261 L88.5026097,14.7828261 Z" id="Fill-6" fill="#FFFFFF"></path>
            <path d="M56.2989342,32.9346739 C55.8421477,32.9346739 55.3853612,33.2607609 55.3853612,33.8042391 L55.3853612,34.8911957 C55.3853612,35.3259783 55.7279511,35.7607609 56.2989342,35.7607609 C56.8699173,35.7607609 57.2125071,35.4346739 57.2125071,34.8911957 L57.2125071,33.8042391 C57.0983105,33.2607609 56.7557206,32.9346739 56.2989342,32.9346739" id="Fill-8" fill="#FFFFFF"></path>
            <path d="M56.2989342,27.2828261 C55.8421477,27.2828261 55.3853612,27.608913 55.3853612,28.1523913 L55.3853612,29.2393478 C55.3853612,29.6741304 55.7279511,30.108913 56.2989342,30.108913 C56.8699173,30.108913 57.2125071,29.7828261 57.2125071,29.2393478 L57.2125071,28.1523913 C57.0983105,27.608913 56.7557206,27.2828261 56.2989342,27.2828261" id="Fill-10" fill="#FFFFFF"></path>
            <path d="M56.2989342,38.5865217 C55.8421477,38.5865217 55.3853612,38.9136957 55.3853612,39.4571739 L55.3853612,40.5441304 C55.3853612,40.9778261 55.7279511,41.4136957 56.2989342,41.4136957 C56.8699173,41.4136957 57.2125071,41.0876087 57.2125071,40.5441304 L57.2125071,39.4571739 C57.0983105,38.9136957 56.7557206,38.5865217 56.2989342,38.5865217" id="Fill-12" fill="#FFFFFF"></path>
            <path d="M56.2989342,21.6304348 C55.8421477,21.6304348 55.3853612,21.9565217 55.3853612,22.5 L55.3853612,23.5869565 C55.3853612,24.0217391 55.7279511,24.4565217 56.2989342,24.4565217 C56.8699173,24.4565217 57.2125071,24.1304348 57.2125071,23.5869565 L57.2125071,22.5 C57.0983105,21.9565217 56.7557206,21.6304348 56.2989342,21.6304348" id="Fill-14" fill="#FFFFFF"></path>
            <path d="M56.2989342,15.9780435 C55.8421477,15.9780435 55.3853612,16.3041304 55.3853612,16.8476087 L55.3853612,17.9345652 C55.3853612,18.3693478 55.7279511,18.8041304 56.2989342,18.8041304 C56.8699173,18.8041304 57.2125071,18.4780435 57.2125071,17.9345652 L57.2125071,16.8476087 C57.0983105,16.3041304 56.7557206,15.9780435 56.2989342,15.9780435" id="Fill-16" fill="#FFFFFF"></path>
            <path d="M46.3635997,21.5216304 L10.3916641,21.5216304 C10.0490743,21.5216304 9.82068101,21.7390217 9.82068101,22.0651087 C9.82068101,22.3911957 10.0490743,22.608587 10.3916641,22.608587 L46.3635997,22.608587 C46.7061896,22.608587 46.9345828,22.3911957 46.9345828,22.0651087 C46.9345828,21.7390217 46.7061896,21.5216304 46.3635997,21.5216304" id="Fill-18" fill="#FFFFFF"></path>
            <path d="M10.3916641,29.4567391 L36.5426903,29.4567391 C36.8852802,29.4567391 37.1136734,29.2393478 37.1136734,28.9132609 C37.1136734,28.5871739 36.8852802,28.3697826 36.5426903,28.3697826 L10.3916641,28.3697826 C10.0490743,28.3697826 9.82068101,28.5871739 9.82068101,28.9132609 C9.82068101,29.2393478 10.0490743,29.4567391 10.3916641,29.4567391" id="Fill-20" fill="#FFFFFF"></path>
            <path d="M42.1386674,35.3261957 L10.3920067,35.3261957 C10.0494168,35.3261957 9.8210236,35.543587 9.8210236,35.8696739 C9.8210236,36.1957609 10.0494168,36.4131522 10.3920067,36.4131522 L42.1386674,36.4131522 C42.4812572,36.4131522 42.7096505,36.1957609 42.7096505,35.8696739 C42.7096505,35.543587 42.4812572,35.3261957 42.1386674,35.3261957" id="Fill-22" fill="#FFFFFF"></path>
            <path d="M55.3227731,28.4567391 L78.318589,28.4567391 C78.6198442,28.4567391 78.820681,28.2393478 78.820681,27.9132609 C78.820681,27.5871739 78.6198442,27.3697826 78.318589,27.3697826 L55.3227731,27.3697826 C55.0215178,27.3697826 54.820681,27.5871739 54.820681,27.9132609 C54.820681,28.2393478 55.0215178,28.4567391 55.3227731,28.4567391" id="Fill-20-Copy-2" fill="#FFFFFF" transform="translate(66.820681, 27.913261) rotate(-270.000000) translate(-66.820681, -27.913261) "></path>
            <path d="M60.3227731,28.4567391 L83.318589,28.4567391 C83.6198442,28.4567391 83.820681,28.2393478 83.820681,27.9132609 C83.820681,27.5871739 83.6198442,27.3697826 83.318589,27.3697826 L60.3227731,27.3697826 C60.0215178,27.3697826 59.820681,27.5871739 59.820681,27.9132609 C59.820681,28.2393478 60.0215178,28.4567391 60.3227731,28.4567391" id="Fill-20" fill="#FFFFFF" transform="translate(71.820681, 27.913261) rotate(-270.000000) translate(-71.820681, -27.913261) "></path>
            <path d="M65.3227731,28.4567391 L88.318589,28.4567391 C88.6198442,28.4567391 88.820681,28.2393478 88.820681,27.9132609 C88.820681,27.5871739 88.6198442,27.3697826 88.318589,27.3697826 L65.3227731,27.3697826 C65.0215178,27.3697826 64.820681,27.5871739 64.820681,27.9132609 C64.820681,28.2393478 65.0215178,28.4567391 65.3227731,28.4567391" id="Fill-20-Copy" fill="#FFFFFF" transform="translate(76.820681, 27.913261) rotate(-270.000000) translate(-76.820681, -27.913261) "></path>
        </g>
    </g>
</svg>
